X:2
T:Dram: Halvan
C:anon.
O:Norway?
S:Frank Nordberg <frnordbe@online.no> abcusers 2001-9-8
M:2/4
L:1/8
Q:1/4=3D100
K:G
"G"DG G>A|"D7"GF F2|"D7"EE E>F|"G"ED D2|
w:La os syn-ge nok en-gang full av glad og fryd-full trang,
"G"DB B>c|"C"BA c2|"D7"AG FD|"D7"EF "G"G2|]
w:sig-ne hver en dram vi f\aar, he-lan gikk og hal-van g\aar.
